images/cart.svg

<svg xmlns="http://www.w3.org/2000/svg" viewBox="0 0 841.9 595.3" enable-background="new 0 0 841.9 595.3"><path fill="#fff" d="M585.5 75.9h-585.5l105.6 239.2h404.4l75.5-239.2zm-464.5 78.8h360.6l-26.4 82h-298l-36.2-82zm691.1-154.7l-25.2 78.8h-59.3l-116.9 371.1h-447.5l-34.9-78.8h425.1l117-371.1h141.7zm-286.3 542.1c0 29.2-23.6 53.2-53.2 53.2-29.2 0-53.2-23.6-53.2-53.2 0-29.2 23.6-53.2 53.2-53.2 29.7.4 53.2 24 53.2 53.2zm-175 0c0 29.2-23.6 53.2-53.2 53.2s-53.2-23.6-53.2-53.2c0-29.2 23.6-53.2 53.2-53.2 29.7 0 53.2 24 53.2 53.2z"/></svg>

<?xml version="1.0" encoding="utf-8"?>
<!-- Generator: Adobe Illustrator 17.1.0, SVG Export Plug-In . SVG Version: 6.00 Build 0)  -->
<!DOCTYPE svg PUBLIC "-//W3C//DTD SVG 1.1//EN" "http://www.w3.org/Graphics/SVG/1.1/DTD/svg11.dtd">
<svg version="1.1" id="Layer_1" xmlns="http://www.w3.org/2000/svg" xmlns:xlink="http://www.w3.org/1999/xlink" x="0px" y="0px"
	 viewBox="0 0 841.9 595.3" enable-background="new 0 0 841.9 595.3" xml:space="preserve">
<path id="shopping-cart-4-icon" fill="#FFFFFF" d="M585.5,75.9H0l105.6,239.2H510L585.5,75.9z M121,154.7h360.6l-26.4,82h-298
	L121,154.7z M812.1,0l-25.2,78.8h-59.3L610.7,449.9H163.2l-34.9-78.8h425.1L670.4,0H812.1L812.1,0z M525.8,542.1
	c0,29.2-23.6,53.2-53.2,53.2c-29.2,0-53.2-23.6-53.2-53.2c0-29.2,23.6-53.2,53.2-53.2C502.3,489.3,525.8,512.9,525.8,542.1z
	 M350.8,542.1c0,29.2-23.6,53.2-53.2,53.2c-29.6,0-53.2-23.6-53.2-53.2c0-29.2,23.6-53.2,53.2-53.2
	C327.3,488.9,350.8,512.9,350.8,542.1z"/>
</svg>
